X:1605
T:The Caledonian Rant
P:Mrs Grieve of Howdan
C:Traditional (Surenne)
R:Strathspey (8x32)
B:RSCDS 16-5
Z:Anselm Lingnau <anselm@strathspey.org>
M:4/4
L:1/8
K:D
G|"D"F<G A<F "G"G<B "D"A2|"G"B<e "E"e>d "A"c>B A>G|\
  "D"F>G A<F "G"G<B "D"A>d|"Em"B>e "A"d/c/B/c/ "D"d3 G|
  "D"F<G A<F "G"G<B "D"A2|"G"B<e "E"e>d "A"c>B A>G|\
  "D"F>G A<F "G"G<B "D"A>d|"Em"B>e "A"d/c/B/c/ "D"d3||
g|"D"f>e d<g "D"f<a f<d|"Em"B<e e>d "A"c>d e<g|\
  "D"f>e d<g "D"f<a f<d|"Em"B<e "A"d/c/B/c/ "D"d3 g|
  "D"f>e d<g "D"f<a f<d|"Em"B<e e>d "A"c>d e<g|\
  "D"f>a g/f/e/d/ "A"c/d/e/c/ "D"d>A|"Em"B>e "A"d/c/B/c/ "D"[d3F3]|]
